X:114
T:My own Whim. JJo.114
B:J.Johnson Choice Collection Vol 8 1758
Z:vmp.Simon Wilson 2013 www.village-music-project.org.uk
Z:Dance added by John Chambers 2017
N:The even-numbered bars are missing their final notes; adjusted to match several other copies online. [jc]
N:Also found in C/Am.
M:12/8
L:1/8
%Q:3/8=120
K:A
|: a |\
ecd ecd ecd e2a | fde fde fde faf |\
ecd ecd ecd efg | aec ecA B3 !fermata!A2 :|
|: c |\
AFG AFG AFG ABc | dcB AGF ^EFG C2c |\
dcB cfc dcB cFc | dcB cfB ABG "_D.C."F2 :|
%%begintext align
%% Hey contrary sides . | . then on your
%% own sides . || . Cross over half
%% figure .|| Right and Left at Top
%% :||:
%%endtext
